icon-themes/sifr_svg/cmd/sc_flowchartshapes.flowchart-direct-access-storage.svg

<svg viewBox="0 0 16 16" xmlns="http://www.w3.org/2000/svg"><g fill="#555753"><path d="m4 3a3 5 0 0 0 -3 5 3 5 0 0 0 3 5h5.7929688a4 6 0 0 1 -1.7929688-5 4 6 0 0 1 1.7949219-5zm8 0a3 5 0 0 0 -3 5 3 5 0 0 0 3 5 3 5 0 0 0 3-5 3 5 0 0 0 -3-5z" opacity=".35"/><path d="m4 2c-1.2787939 0-2.3201674.8519717-2.9785156 1.9492188-.65834825 1.097247-1.0214844 2.5079373-1.0214844 4.0507812s.36313615 2.953534 1.0214844 4.050781c.6583482 1.097247 1.6997217 1.949219 2.9785156 1.949219h8 .220703l-.05469-.05469c1.195057-.07691 2.185891-.850183 2.8125-1.894531.658351-1.097245 1.021487-2.5079351 1.021487-4.050779s-.363136-2.9535342-1.021484-4.0507812c-.626272-1.0437862-1.616371-1.8168592-2.810547-1.8945313l.05664-.0546875h-.224609zm0 2h4.0351562c-.6103218 1.1896662-1.0341756 2.5204672-1.0351562 4 .0006619 1.4791893.4234265 2.810238 1.0332031 4h-4.0332031c-.3780604 0-.8362337-.266119-1.2636719-.978516s-.7363281-1.8029042-.7363281-3.021484.3088899-2.3090874.7363281-3.0214844.8856115-.9785156 1.2636719-.9785156zm8 0c.37806 0 .836234.2661186 1.263672.9785156s.736328 1.8029046.736328 3.0214844-.30889 2.309087-.736328 3.021484-.885612.978516-1.263672.978516-.836234-.266119-1.263672-.978516-.736328-1.8029042-.736328-3.021484.30889-2.3090874.736328-3.0214844.885612-.9785156 1.263672-.9785156z"/></g></svg>

<svg xmlns="http://www.w3.org/2000/svg" viewBox="0 0 16 16">
  <path
     style="opacity:0.35;fill:#555753"
     d="M 4 3 A 3 5 0 0 0 1 8 A 3 5 0 0 0 4 13 L 9.7929688 13 A 4 6 0 0 1 8 8 A 4 6 0 0 1 9.7949219 3 L 4 3 z M 12 3 A 3 5 0 0 0 9 8 A 3 5 0 0 0 12 13 A 3 5 0 0 0 15 8 A 3 5 0 0 0 12 3 z "
     />
  <path
     style="fill:#555753"
     d="M 4,2 C 2.7212061,2 1.6798326,2.8519717 1.0214844,3.9492188 0.36313615,5.0464658 0,6.4571561 0,8 0,9.5428439 0.36313615,10.953534 1.0214844,12.050781 1.6798326,13.148028 2.7212061,14 4,14 h 8 0.220703 l -0.05469,-0.05469 c 1.195057,-0.07691 2.185891,-0.850183 2.8125,-1.894531 C 15.636864,10.953534 16,9.5428439 16,8 16,6.4571561 15.636864,5.0464658 14.978516,3.9492188 14.352244,2.9054326 13.362145,2.1323596 12.167969,2.0546875 L 12.224609,2 H 12 Z M 4,4 H 8.0351562 C 7.4248344,5.1896662 7.0009806,6.5204672 7,8 c 6.619e-4,1.4791893 0.4234265,2.810238 1.0332031,4 H 4 C 3.6219396,12 3.1637663,11.733881 2.7363281,11.021484 2.3088899,10.309087 2,9.2185798 2,8 2,6.7814202 2.3088899,5.6909126 2.7363281,4.9785156 3.1637663,4.2661186 3.6219396,4 4,4 Z m 8,0 c 0.37806,0 0.836234,0.2661186 1.263672,0.9785156 C 13.69111,5.6909126 14,6.7814202 14,8 14,9.2185798 13.69111,10.309087 13.263672,11.021484 12.836234,11.733881 12.37806,12 12,12 11.62194,12 11.163766,11.733881 10.736328,11.021484 10.30889,10.309087 10,9.2185798 10,8 10,6.7814202 10.30889,5.6909126 10.736328,4.9785156 11.163766,4.2661186 11.62194,4 12,4 Z"
     />
</svg>
